; generated by PrusaSlicer 2.5.2+MacOS-arm64 on 2023-05-30 at 19:06:52 UTC


;
;

;
;
; 

; external perimeters extrusion width = 0.45mm
; perimeters extrusion width = 0.45mm
; infill extrusion width = 0.45mm
; solid infill extrusion width = 0.45mm
; top infill extrusion width = 0.40mm
; support material extrusion width = 0.35mm
; first layer extrusion width = 0.42mm

M73 P0 R33
M107
;TYPE:Custom
G90 ; use absolute coordinates
M83 ; extruder relative mode
M204 S1250 T1250
M104 S215 ; set extruder temp
M140 S65 ; set bed temp
G28 ; home all
M501 ; Mesh Bed Leveling (Load all saved settings from EEPROM)
M420 S1 ; Mesh Bed Leveling (Bed Leveling State)
G1 Y1.0 Z0.3 F1000 ; move print head up
M190 S65 ; wait for bed temp
M109 S215 ; wait for extruder temp
G92 E0.0
G92 E0.0
; initial load
G1 Y2
G1 X205.0 E19 F1000
G1 Y3
M73 P0 R32
G1 X5.0 E19 F1000
G92 E0.0
; intro line
G1 Y3 Z0.2 F1000
M73 P1 R32
G1 X65.0 E9.0 F1000
G1 X105.0 E12.5 F1000
G92 E0.0
G21 ; set units to millimeters
G90 ; use absolute coordinates
M83 ; use relative distances for extrusion
; Filament gcode
M107
;LAYER_CHANGE
;Z:0.2
;HEIGHT:0.2
;BEFORE_LAYER_CHANGE
G92 E0.0
;0.2
G1 E-6 F2400
G1 Z.075 F10800
G1 Z.2
;AFTER_LAYER_CHANGE
;0.2
G1 Z.275
G1 X110.465 Y120.372
G1 Z.2
G1 E6 F3000
M204 S800
;TYPE:Skirt/Brim
;WIDTH:0.42
G1 F1200
G1 X111.511 Y119.495 E.04278
G1 X112.45 Y119.302 E.03008
G1 X187.55 Y119.302 E2.35469
G1 X188.857 Y119.693 E.04278
G1 X189.733 Y120.739 E.04278
G1 X189.927 Y121.679 E.03008
G1 X189.927 Y129.873 E.25692
G1 X189.484 Y131.254 E.04549
G1 X166.413 Y163.553 E1.24453
G1 X156.782 Y176.102 E.49599
G1 X155.898 Y177.059 E.04084
G1 X155.042 Y177.761 E.0347
G1 X154.37 Y178.199 E.02516
G1 X153.099 Y178.811 E.04422
G1 X152.043 Y179.141 E.0347
G1 X151.255 Y179.294 E.02516
G1 X150.152 Y179.385 E.0347
G1 X149.047 Y179.333 E.0347
M73 P2 R32
G1 X147.957 Y179.141 E.0347
G1 X146.901 Y178.811 E.0347
G1 X145.896 Y178.348 E.0347
G1 X144.958 Y177.761 E.0347
G1 X144.102 Y177.059 E.0347
G1 X143.218 Y176.102 E.04084
G1 X133.587 Y163.553 E.49599
G1 X110.516 Y131.254 E1.24453
G1 X110.073 Y129.873 E.04549
G1 X110.073 Y121.679 E.25692
G1 X110.448 Y120.429 E.0409
M204 S1000
; printing object Solum ST-GR29000 Lanyard Holder - F360 Shortened id:0 copy 0
G1 E-3.6 F2400
;WIPE_START
G1 F8640
G1 X111.511 Y119.495 E-.37338
G1 X112.45 Y119.302 E-.2532
G1 X118.716 Y119.302 E-1.65342
;WIPE_END
G1 E-.12 F2400
G1 Z.275 F10800
G1 X120.895 Y123.023
G1 Z.2
G1 E6 F3000
M204 S800
;TYPE:Support material
G1 F1200
G1 X120.309 Y123.067 E.01841
G1 X119.65 Y123.213 E.02117
G1 X119.049 Y123.437 E.0201
G1 X118.455 Y123.759 E.02117
G1 X117.887 Y124.184 E.02225
G1 X117.412 Y124.663 E.02117
G1 X117.027 Y125.177 E.0201
G1 X116.687 Y125.799 E.02225
G1 X116.463 Y126.4 E.0201
G1 X116.317 Y127.059 E.02117
G1 X116.267 Y127.741 E.02144
G1 X116.267 Y129.873 E.06682
G1 X112.45 Y129.873 E.11966
G1 X112.45 Y121.679 E.25692
G1 X120.552 Y121.679 E.25402
G1 X120.881 Y122.968 E.04173
M204 S1000
G1 X120.253 Y122.906 F10800
M204 S800
G1 F1200
G1 X120.253 Y122.018 E.02784
G1 X119.834 Y122.018 E.01314
G1 X119.834 Y122.824 E.02525
G1 X119.599 Y122.875 E.00753
G1 X119.415 Y122.939 E.00612
G1 X119.415 Y122.018 E.02887
G1 X118.996 Y122.018 E.01314
G1 X118.996 Y123.095 E.03377
G1 X118.577 Y123.306 E.01471
G1 X118.577 Y122.018 E.04038
G1 X118.158 Y122.018 E.01314
G1 X118.158 Y123.555 E.04818
G1 X117.739 Y123.868 E.01641
G1 X117.739 Y122.018 E.05801
G1 X117.32 Y122.018 E.01314
G1 X117.32 Y124.272 E.07066
G1 X117.147 Y124.45 E.00779
G1 X116.901 Y124.779 E.01289
G1 X116.901 Y122.018 E.08658
G1 X116.482 Y122.018 E.01314
G1 X116.482 Y125.462 E.108
G1 X116.374 Y125.669 E.00732
G1 X116.141 Y126.293 E.02086
G1 X116.063 Y126.633 E.01093
G1 X116.063 Y122.018 E.14469
G1 X115.644 Y122.018 E.01314
G1 X115.644 Y129.533 E.23563
G1 X115.225 Y129.533 E.01314
G1 X115.225 Y122.018 E.23563
G1 X114.806 Y122.018 E.01314
G1 X114.806 Y129.533 E.23563
G1 X114.387 Y129.533 E.01314
G1 X114.387 Y122.018 E.23563
G1 X113.968 Y122.018 E.01314
G1 X113.968 Y129.533 E.23563
G1 X113.549 Y129.533 E.01314
G1 X113.549 Y122.018 E.23563
G1 X113.13 Y122.018 E.01314
G1 X113.13 Y129.703 E.24096
M204 S1000
G1 E-3.6 F2400
;WIPE_START
G1 F8640
G1 X113.13 Y122.018 E-2.02796
G1 X113.549 Y122.018 E-.11056
G1 X113.549 Y122.554 E-.14147
;WIPE_END
G1 E-.12 F2400
G1 Z.275 F10800
G1 X137.961 Y154.407
G1 Z.2
G1 E6 F3000
M204 S800
G1 F1200
G1 X138.605 Y155.181 E.03159
G1 X139.152 Y155.932 E.02911
G1 X139.655 Y156.716 E.02921
G1 X140.117 Y157.529 E.02934
G1 X140.539 Y158.369 E.02947
G1 X140.925 Y159.232 E.02963
G1 X141.277 Y160.113 E.02974
G1 X141.715 Y161.352 E.04121
G1 X141.968 Y162.172 E.0269
G1 X135.521 Y162.172 E.20213
G1 X135.521 Y153.978 E.25692
G1 X137.581 Y153.978 E.06458
G1 X137.923 Y154.364 E.01619
M204 S1000
G1 X141.201 Y162.002 F10800
M204 S800
G1 F1200
G1 X141.201 Y160.917 E.03401
G1 X140.783 Y159.79 E.03772
G1 X140.783 Y161.832 E.06404
G1 X140.364 Y161.832 E.01314
G1 X140.364 Y158.808 E.09482
G1 X139.945 Y157.942 E.03017
G1 X139.945 Y161.832 E.12198
G1 X139.526 Y161.832 E.01314
G1 X139.526 Y157.175 E.14604
G1 X139.107 Y156.49 E.02518
G1 X139.107 Y161.832 E.16752
G1 X138.688 Y161.832 E.01314
G1 X138.688 Y155.871 E.18692
G1 X138.269 Y155.306 E.02205
G1 X138.269 Y161.832 E.20464
G1 X137.85 Y161.832 E.01314
G1 X137.85 Y154.797 E.22057
G1 X137.431 Y154.32 E.01991
G1 X137.431 Y161.832 E.23554
G1 X137.012 Y161.832 E.01314
G1 X137.012 Y154.317 E.23563
G1 X136.593 Y154.317 E.01314
G1 X136.593 Y161.832 E.23563
G1 X136.174 Y161.832 E.01314
G1 X136.174 Y154.147 E.24096
M204 S1000
G1 E-3.6 F2400
;WIPE_START
G1 F8640
G1 X136.174 Y161.832 E-2.02796
G1 X136.593 Y161.832 E-.11056
G1 X136.593 Y161.296 E-.14147
;WIPE_END
G1 E-.12 F2400
G1 Z.275 F10800
G1 X164.479 Y162.172
G1 Z.2
G1 E6 F3000
M204 S800
G1 F1200
G1 X158.034 Y162.172 E.20207
G1 X158.184 Y161.664 E.0166
G1 X158.691 Y160.199 E.04859
G1 X159.277 Y158.772 E.04838
G1 X159.601 Y158.084 E.02384
G1 X159.95 Y157.409 E.02383
G1 X160.324 Y156.752 E.02372
G1 X160.725 Y156.114 E.02361
G1 X161.153 Y155.497 E.02354
G1 X161.612 Y154.904 E.02351
G1 X162.419 Y153.978 E.03852
G1 X164.479 Y153.978 E.06459
G1 X164.479 Y162.115 E.25514
M204 S1000
G1 X163.826 Y162.002 F10800
M204 S800
G1 F1200
G1 X163.826 Y154.317 E.24095
G1 X163.407 Y154.317 E.01314
G1 X163.407 Y161.832 E.23563
G1 X162.988 Y161.832 E.01314
M73 P3 R32
G1 X162.988 Y154.317 E.23563
G1 X162.569 Y154.32 E.01314
G1 X162.569 Y161.832 E.23555
G1 X162.15 Y161.832 E.01314
G1 X162.15 Y154.797 E.22059
G1 X161.731 Y155.304 E.02063
G1 X161.731 Y161.832 E.20469
G1 X161.312 Y161.832 E.01314
G1 X161.312 Y155.863 E.18716
G1 X160.893 Y156.483 E.02346
G1 X160.893 Y161.832 E.16772
G1 X160.474 Y161.832 E.01314
G1 X160.474 Y157.173 E.14608
G1 X160.055 Y157.944 E.0275
G1 X160.055 Y161.832 E.12192
G1 X159.636 Y161.832 E.01314
G1 X159.636 Y158.806 E.09489
G1 X159.217 Y159.811 E.03413
G1 X159.217 Y161.832 E.06339
G1 X158.799 Y161.832 E.01314
G1 X158.799 Y160.407 E.04469
M204 S1000
G1 E-3.6 F2400
;WIPE_START
G1 F8640
G1 X158.799 Y161.832 E-.3761
G1 X159.217 Y161.832 E-.11056
G1 X159.217 Y159.811 E-.53352
G1 X159.636 Y158.806 E-.28726
G1 X159.636 Y161.832 E-.79866
G1 X160.055 Y161.832 E-.11056
G1 X160.055 Y161.592 E-.06333
;WIPE_END
G1 E-.12 F2400
G1 Z.275 F10800
G1 X187.55 Y129.873
G1 Z.2
G1 E6 F3000
M204 S800
G1 F1200
G1 X183.733 Y129.873 E.11966
G1 X183.733 Y127.741 E.06682
G1 X183.688 Y127.093 E.02037
G1 X183.546 Y126.433 E.02117
G1 X183.298 Y125.768 E.02225
G1 X182.973 Y125.177 E.02117
G1 X182.588 Y124.663 E.0201
G1 X182.113 Y124.184 E.02117
G1 X181.573 Y123.777 E.02118
G1 X180.982 Y123.452 E.02117
G1 X180.35 Y123.213 E.02118
G1 X179.691 Y123.067 E.02117
G1 X179.105 Y123.023 E.01841
G1 X179.448 Y121.679 E.0435
G1 X187.55 Y121.679 E.25402
G1 X187.55 Y129.816 E.25514
M204 S1000
G1 X186.87 Y129.703 F10800
M204 S800
G1 F1200
G1 X186.87 Y122.018 E.24096
G1 X186.451 Y122.018 E.01314
G1 X186.451 Y129.533 E.23563
G1 X186.032 Y129.533 E.01314
G1 X186.032 Y122.018 E.23563
G1 X185.613 Y122.018 E.01314
G1 X185.613 Y129.533 E.23563
G1 X185.194 Y129.533 E.01314
G1 X185.194 Y122.018 E.23563
G1 X184.775 Y122.018 E.01314
G1 X184.775 Y129.533 E.23563
G1 X184.356 Y129.533 E.01314
G1 X184.356 Y122.018 E.23563
G1 X183.937 Y122.018 E.01314
G1 X183.937 Y126.633 E.14469
G1 X183.859 Y126.293 E.01093
G1 X183.626 Y125.669 E.02086
G1 X183.518 Y125.462 E.00732
G1 X183.518 Y122.018 E.108
G1 X183.099 Y122.018 E.01314
G1 X183.099 Y124.779 E.08658
G1 X182.853 Y124.45 E.01289
G1 X182.68 Y124.272 E.00779
G1 X182.68 Y122.018 E.07066
G1 X182.261 Y122.018 E.01314
G1 X182.261 Y123.868 E.05801
G1 X181.842 Y123.555 E.01641
G1 X181.842 Y122.018 E.04818
G1 X181.423 Y122.018 E.01314
G1 X181.423 Y123.306 E.04038
G1 X181.004 Y123.095 E.01471
G1 X181.004 Y122.018 E.03377
G1 X180.585 Y122.018 E.01314
G1 X180.585 Y122.939 E.02887
G1 X180.401 Y122.875 E.00612
G1 X180.166 Y122.824 E.00753
G1 X180.166 Y122.018 E.02525
G1 X179.747 Y122.018 E.01314
G1 X179.747 Y122.906 E.02784
M204 S1000
G1 X179.522 Y124.123 F10800
M204 S800
;TYPE:Perimeter
;WIDTH:0.419999
G1 F1200
G1 X180.032 Y124.234 E.01639
G1 X180.522 Y124.416 E.01639
G1 X180.981 Y124.667 E.01639
G1 X181.4 Y124.98 E.01639
G1 X181.77 Y125.35 E.01639
G1 X182.083 Y125.769 E.01639
G1 X182.334 Y126.228 E.01639
G1 X182.516 Y126.718 E.01639
G1 X182.627 Y127.228 E.01639
G1 X182.666 Y127.771 E.01705
G1 X182.658 Y130.791 E.0947
G1 X182.587 Y131.392 E.01897
G1 X182.386 Y132.081 E.0225
M73 P3 R31
G1 X182.041 Y132.711 E.0225
G1 X181.579 Y133.285 E.02311
G1 X161.821 Y153.044 E.87613
G1 X160.775 Y154.242 E.04985
G1 X160.128 Y155.103 E.03378
G1 X159.827 Y155.536 E.01652
G1 X159.402 Y156.214 E.0251
G1 X158.887 Y157.142 E.03327
G1 X158.612 Y157.68 E.01896
G1 X158.295 Y158.355 E.02337
G1 X157.687 Y159.837 E.05023
G1 X157.164 Y161.351 E.05021
G1 X156.712 Y162.884 E.05013
G1 X156.317 Y164.433 E.05011
G1 X155.993 Y165.888 E.04673
G1 X155.705 Y167.353 E.04682
G1 X155.27 Y169.956 E.08276
G1 X155.141 Y169.334 E.01992
G1 X154.913 Y168.675 E.02187
G1 X154.6 Y168.052 E.02187
G1 X154.208 Y167.474 E.02187
G1 X153.745 Y166.953 E.02187
G1 X153.217 Y166.497 E.02187
G1 X152.634 Y166.113 E.02187
G1 X152.007 Y165.809 E.02187
G1 X151.344 Y165.59 E.02187
G1 X150.659 Y165.458 E.02187
G1 X149.963 Y165.417 E.02187
G1 X149.267 Y165.468 E.02187
G1 X148.584 Y165.609 E.02187
G1 X147.925 Y165.837 E.02187
G1 X147.151 Y166.251 E.02752
G1 X146.724 Y166.542 E.01619
G1 X146.203 Y167.005 E.02187
G1 X145.747 Y167.533 E.02187
G1 X145.363 Y168.116 E.02187
G1 X145.059 Y168.743 E.02187
G1 X144.84 Y169.406 E.02187
G1 X144.73 Y169.955 E.01756
G1 X144.34 Y167.601 E.07482
G1 X144.085 Y166.268 E.04255
G1 X143.8 Y164.94 E.04258
G1 X143.416 Y163.372 E.05062
G1 X143.126 Y162.306 E.03464
G1 X142.724 Y161.006 E.04266
G1 X142.272 Y159.726 E.04258
G1 X141.903 Y158.805 E.03109
G1 X141.298 Y157.502 E.04505
G1 X140.975 Y156.879 E.02203
G1 X140.56 Y156.15 E.02627
G1 X139.862 Y155.094 E.03972
G1 X139.439 Y154.514 E.02251
G1 X138.816 Y153.759 E.03067
G1 X138.157 Y153.021 E.03104
G1 X118.334 Y133.186 E.87924
G1 X117.959 Y132.711 E.01897
G1 X117.614 Y132.081 E.0225
G1 X117.413 Y131.392 E.0225
G1 X117.334 Y130.66 E.02311
G1 X117.334 Y127.771 E.09057
G1 X117.373 Y127.228 E.01705
G1 X117.484 Y126.718 E.01639
G1 X117.666 Y126.228 E.01639
G1 X117.917 Y125.769 E.01639
G1 X118.23 Y125.35 E.01639
G1 X118.6 Y124.98 E.01639
G1 X119.019 Y124.667 E.01639
G1 X119.478 Y124.416 E.01639
G1 X119.968 Y124.234 E.01639
G1 X120.478 Y124.123 E.01639
G1 X121.021 Y124.084 E.01705
G1 X178.979 Y124.084 E1.81723
G1 X179.462 Y124.118 E.01517
M204 S1000
G1 X179.575 Y123.748 F10800
M204 S800
;TYPE:External perimeter
G1 F1200
G1 X180.139 Y123.871 E.01809
G1 X180.679 Y124.073 E.01809
G1 X181.186 Y124.349 E.01809
G1 X181.647 Y124.695 E.01809
G1 X182.055 Y125.103 E.01809
G1 X182.401 Y125.564 E.01809
M73 P4 R31
G1 X182.677 Y126.071 E.01809
G1 X182.879 Y126.611 E.01809
G1 X183.002 Y127.175 E.01809
G1 X183.043 Y127.757 E.01832
G1 X183.043 Y130.672 E.09138
G1 X183.008 Y131.207 E.0168
G1 X182.905 Y131.725 E.01658
G1 X182.735 Y132.226 E.01658
G1 X182.501 Y132.7 E.01658
G1 X182.207 Y133.14 E.01658
G1 X181.854 Y133.543 E.0168
G1 X162.102 Y153.295 E.87584
G1 X161.073 Y154.472 E.04902
G1 X160.437 Y155.318 E.03319
G1 X160.147 Y155.737 E.01597
G1 X159.73 Y156.401 E.02458
G1 X159.222 Y157.315 E.0328
G1 X158.953 Y157.841 E.01852
G1 X158.644 Y158.498 E.02278
G1 X158.044 Y159.957 E.04946
G1 X157.526 Y161.458 E.04977
G1 X157.077 Y162.977 E.04969
G1 X156.685 Y164.515 E.04975
G1 X156.363 Y165.96 E.04643
G1 X156.077 Y167.415 E.04648
G1 X155.734 Y169.465 E.06516
;WIDTH:0.457413
G1 X155.613 Y170.077 E.02151
;WIDTH:0.502504
G1 X155.57 Y170.198 E.00491
;WIDTH:0.547594
G1 X155.527 Y170.319 E.00539
G1 X155.493 Y170.803 E.0204
;WIDTH:0.527583
G1 X155.415 Y171.643 E.03396
G1 X155.257 Y172.326 E.02828
;WIDTH:0.527341
G1 X155.012 Y172.986 E.02833
;WIDTH:0.527062
G1 X154.685 Y173.608 E.02831
;WIDTH:0.526761
G1 X154.281 Y174.184 E.02829
;WIDTH:0.526443
G1 X153.807 Y174.704 E.02828
;WIDTH:0.526107
G1 X153.271 Y175.158 E.02826
;WIDTH:0.525751
G1 X152.68 Y175.54 E.02824
;WIDTH:0.525377
G1 X152.046 Y175.844 E.02822
;WIDTH:0.524984
G1 X151.374 Y176.065 E.02833
;WIDTH:0.524566
G1 X150.669 Y176.198 E.02873
;WIDTH:0.524131
G1 X149.953 Y176.238 E.0287
;WIDTH:0.523716
G1 X149.238 Y176.184 E.02867
;WIDTH:0.523315
G1 X148.536 Y176.038 E.02864
;WIDTH:0.522937
G1 X147.859 Y175.802 E.02862
;WIDTH:0.522578
G1 X147.219 Y175.479 E.0286
;WIDTH:0.522236
G1 X146.626 Y175.075 E.02857
;WIDTH:0.521911
G1 X146.091 Y174.598 E.02855
;WIDTH:0.521606
G1 X145.623 Y174.055 E.02853
;WIDTH:0.521322
G1 X145.23 Y173.456 E.02851
;WIDTH:0.521054
G1 X144.918 Y172.811 E.02849
;WIDTH:0.520806
G1 X144.693 Y172.13 E.02848
;WIDTH:0.521258
G1 X144.557 Y171.429 E.02843
;WIDTH:0.560271
G1 X144.482 Y170.347 E.04666
G1 X144.438 Y170.211 E.00614
;WIDTH:0.516378
G1 X144.395 Y170.075 E.00562
;WIDTH:0.472485
G1 X144.331 Y169.769 E.01115
;WIDTH:0.446242
G1 X144.267 Y169.464 E.01047
;WIDTH:0.419999
G1 X143.97 Y167.672 E.05696
G1 X143.716 Y166.347 E.04229
G1 X143.434 Y165.028 E.04229
G1 X143.052 Y163.471 E.05027
G1 X142.766 Y162.417 E.03423
G1 X142.37 Y161.135 E.04208
G1 X141.922 Y159.866 E.0422
G1 X141.559 Y158.959 E.03062
G1 X141.275 Y158.324 E.02182
G1 X140.647 Y157.065 E.04412
G1 X140.245 Y156.356 E.02553
G1 X139.913 Y155.84 E.01926
G1 X139.148 Y154.754 E.04165
G1 X138.534 Y154.01 E.03022
G1 X137.89 Y153.287 E.03036
G1 X118.146 Y133.543 E.87549
G1 X117.793 Y133.14 E.0168
G1 X117.499 Y132.7 E.01658
G1 X117.265 Y132.226 E.01658
G1 X117.095 Y131.725 E.01658
G1 X116.992 Y131.207 E.01658
G1 X116.957 Y130.672 E.0168
G1 X116.957 Y127.757 E.09138
G1 X116.998 Y127.175 E.01832
G1 X117.121 Y126.611 E.01809
G1 X117.323 Y126.071 E.01809
G1 X117.599 Y125.564 E.01809
G1 X117.945 Y125.103 E.01809
G1 X118.353 Y124.695 E.01809
G1 X118.814 Y124.349 E.01809
G1 X119.321 Y124.073 E.01809
G1 X119.861 Y123.871 E.01809
G1 X120.425 Y123.748 E.01809
G1 X121.007 Y123.707 E.01832
G1 X178.993 Y123.707 E1.81808
G1 X179.515 Y123.744 E.01644
M204 S1000
G1 X179.724 Y124.12 F10800
G1 E-3.6 F2400
;WIPE_START
G1 F8640
G1 X180.139 Y123.871 E-.1679
G1 X180.679 Y124.073 E-.15222
G1 X181.186 Y124.349 E-.15221
G1 X181.647 Y124.695 E-.15222
G1 X182.055 Y125.103 E-.15221
G1 X182.401 Y125.564 E-.15222
G1 X182.677 Y126.071 E-.15221
G1 X182.879 Y126.611 E-.15222
G1 X183.002 Y127.175 E-.15221
G1 X183.043 Y127.757 E-.1542
G1 X183.043 Y130.562 E-.74018
;WIPE_END
G1 E-.12 F2400
G1 Z.275 F10800
G1 X155.001 Y170.331
G1 Z.2
G1 E6 F3000
M204 S800
;WIDTH:0.561593
G1 F1200
G1 X154.965 Y171.388 E.04563
;WIDTH:0.520576
G1 X154.84 Y172.031 E.02601
;WIDTH:0.520806
G1 X154.632 Y172.652 E.02602
;WIDTH:0.521054
G1 X154.344 Y173.24 E.02604
;WIDTH:0.521321
G1 X153.982 Y173.786 E.02605
;WIDTH:0.521606
G1 X153.552 Y174.279 E.02607
;WIDTH:0.521911
G1 X153.061 Y174.713 E.02609
;WIDTH:0.522234
G1 X152.517 Y175.079 E.0261
;WIDTH:0.522577
G1 X151.931 Y175.37 E.02612
;WIDTH:0.522936
G1 X151.311 Y175.583 E.02614
;WIDTH:0.523315
G1 X150.669 Y175.713 E.02617
;WIDTH:0.523715
G1 X150.016 Y175.758 E.02619
;WIDTH:0.52413
