; generated by PrusaSlicer 2.5.2+win64 on 2023-04-16 at 17:21:02 UTC


;
;

;
;
; 

; external perimeters extrusion width = 0.45mm
; perimeters extrusion width = 0.45mm
; infill extrusion width = 0.45mm
; solid infill extrusion width = 0.45mm
; top infill extrusion width = 0.40mm
; support material extrusion width = 0.35mm
; first layer extrusion width = 0.42mm

M73 P0 R28
M201 X1250 Y1250 Z400 E5000 ; sets maximum accelerations, mm/sec^2
M203 X180 Y180 Z12 E80 ; sets maximum feedrates, mm / sec
M204 P1250 R1250 T1500 ; sets acceleration (P, T) and retract acceleration (R), mm/sec^2
M205 X8.00 Y8.00 Z2.00 E10.00 ; sets the jerk limits, mm/sec
M205 S0 T0 ; sets the minimum extruding and travel feed rate, mm/sec
M107
;TYPE:Custom
G90 ; use absolute coordinates
M83 ; extruder relative mode
M104 S170 ; set extruder temp for bed leveling
M140 S60 ; set bed temp
M109 R170 ; wait for bed leveling temp
M190 S60 ; wait for bed temp
G28 ; home all without mesh bed level
G29 ; mesh bed leveling 
M104 S215 ; set extruder temp
G92 E0.0
G1 Y-2.0 X179 F2400
G1 Z3 F720
M109 S215 ; wait for extruder temp

; intro line
G1 X170 F1000
G1 Z0.2 F720
G1 X110.0 E8.0 F900
G1 X40.0 E10.0 F700
G92 E0.0

M221 S95 ; set flow
G21 ; set units to millimeters
G90 ; use absolute coordinates
M83 ; use relative distances for extrusion
M900 K0.2 ; Filament gcode LA 1.5
; ; Filament gcode LA 1.0
M107
;LAYER_CHANGE
;Z:0.2
;HEIGHT:0.2
;BEFORE_LAYER_CHANGE
G92 E0.0
;0.2
M117 INDICATOR-Layer0 ; for DisplayLayerProgress


G1 Z.2 F720
;AFTER_LAYER_CHANGE
;0.2
G1 E-3.2 F4200
G1 Z.4 F720
G1 X50.542 Y60.307 F9000
G1 Z.2 F720
G1 E3.2 F2400
M204 P800
;TYPE:Skirt/Brim
;WIDTH:0.42
G1 F1200
G1 X51.511 Y59.495 E.03964
G1 X52.45 Y59.302 E.03008
G1 X127.55 Y59.302 E2.35469
G1 X128.857 Y59.693 E.04278
M73 P1 R28
G1 X129.733 Y60.739 E.04278
G1 X129.927 Y61.679 E.03008
G1 X129.927 Y69.873 E.25692
G1 X129.484 Y71.254 E.04549
G1 X106.413 Y103.553 E1.24453
G1 X96.718 Y116.199 E.49961
G1 X95.721 Y117.238 E.04515
G1 X94.857 Y117.907 E.03426
G1 X94.169 Y118.329 E.02532
G1 X92.582 Y119.006 E.05407
G1 X91.177 Y119.32 E.04515
G1 X90.087 Y119.4 E.03426
G1 X88.823 Y119.32 E.03971
G1 X88.029 Y119.172 E.02532
G1 X86.82 Y118.794 E.03971
G1 X85.831 Y118.329 E.03426
G1 X84.769 Y117.639 E.03971
G1 X84.15 Y117.121 E.02532
G1 X83.393 Y116.333 E.03426
G1 X73.587 Y103.553 E.50506
G1 X50.516 Y71.254 E1.24453
G1 X50.073 Y69.873 E.04549
G1 X50.073 Y61.679 E.25692
G1 X50.465 Y60.372 E.04278
G1 X50.496 Y60.346 E.00126
M204 P1000
; printing object Solum ST-GR29000 Lanyard Holder - F360 id:0 copy 0
G1 E-2.24 F4200
;WIPE_START
G1 F7200
G1 X51.511 Y59.495 E-.73391
G1 X51.825 Y59.43 E-.17809
;WIPE_END
G1 E-.048 F4200
G1 Z.4 F720
G1 X60.845 Y63.006 F9000
G1 Z.2 F720
G1 E3.2 F2400
M204 P800
;TYPE:Support material
G1 F1200
G1 X60.228 Y63.063 E.01944
G1 X59.824 Y63.147 E.01293
G1 X59.467 Y63.254 E.01169
G1 X59.101 Y63.396 E.01231
G1 X58.73 Y63.577 E.01293
G1 X58.265 Y63.87 E.01723
G1 X57.79 Y64.248 E.01906
G1 X57.498 Y64.54 E.01293
G1 X57.245 Y64.84 E.01231
G1 X57.029 Y65.143 E.01169
G1 X56.817 Y65.498 E.01293
G1 X56.654 Y65.833 E.01169
G1 X56.51 Y66.198 E.01231
G1 X56.392 Y66.593 E.01293
G1 X56.313 Y66.978 E.01231
G1 X56.267 Y67.348 E.01169
G1 X56.25 Y67.735 E.01216
G1 X56.25 Y69.873 E.06702
G1 X52.45 Y69.873 E.11912
G1 X52.45 Y61.679 E.25692
G1 X60.538 Y61.679 E.2536
G1 X60.833 Y62.95 E.04093
M204 P1000
G1 X60.253 Y62.889 F9000
M204 P800
G1 F1200
G1 X60.253 Y62.018 E.0273
G1 X59.834 Y62.018 E.01314
G1 X59.834 Y62.798 E.02445
G1 X59.415 Y62.915 E.01364
G1 X59.415 Y62.018 E.02813
G1 X58.996 Y62.018 E.01314
G1 X58.996 Y63.072 E.03306
G1 X58.577 Y63.274 E.01458
G1 X58.577 Y62.018 E.03938
G1 X58.158 Y62.018 E.01314
G1 X58.158 Y63.53 E.0474
G1 X57.739 Y63.847 E.01647
G1 X57.739 Y62.018 E.05734
G1 X57.32 Y62.018 E.01314
G1 X57.32 Y64.237 E.06958
G1 X56.901 Y64.738 E.02048
G1 X56.901 Y62.018 E.08529
G1 X56.482 Y62.018 E.01314
G1 X56.482 Y65.411 E.1064
G1 X56.332 Y65.721 E.01078
G1 X56.191 Y66.081 E.01213
G1 X56.063 Y66.513 E.01411
G1 X56.063 Y62.018 E.14092
G1 X55.644 Y62.018 E.01314
G1 X55.644 Y69.533 E.23563
G1 X55.225 Y69.533 E.01314
G1 X55.225 Y62.018 E.23563
G1 X54.806 Y62.018 E.01314
G1 X54.806 Y69.533 E.23563
G1 X54.387 Y69.533 E.01314
G1 X54.387 Y62.018 E.23563
G1 X53.968 Y62.018 E.01314
G1 X53.968 Y69.533 E.23563
G1 X53.549 Y69.533 E.01314
G1 X53.549 Y62.018 E.23563
G1 X53.13 Y62.018 E.01314
G1 X53.13 Y69.703 E.24096
M204 P1000
G1 E-2.24 F4200
;WIPE_START
G1 F7200
G1 X53.13 Y68.057 E-.912
;WIPE_END
G1 E-.048 F4200
M73 P2 R28
G1 Z.4 F720
G1 X77.652 Y94.069 F9000
G1 Z.2 F720
G1 E3.2 F2400
M204 P800
G1 F1200
G1 X78.316 Y94.819 E.03141
G1 X78.884 Y95.552 E.02907
G1 X79.409 Y96.32 E.02916
G1 X79.655 Y96.715 E.01462
G1 X80.117 Y97.529 E.02933
G1 X80.539 Y98.369 E.02948
G1 X81.105 Y99.67 E.0445
G1 X81.503 Y100.729 E.03546
G1 X81.972 Y102.172 E.04756
G1 X75.521 Y102.172 E.20227
G1 X75.521 Y93.978 E.25692
G1 X77.567 Y93.978 E.06415
G1 X77.613 Y94.028 E.00213
M204 P1000
G1 X81.201 Y102.002 F9000
M204 P800
G1 F1200
G1 X81.201 Y100.897 E.03464
G1 X80.783 Y99.778 E.03747
G1 X80.783 Y101.832 E.06441
G1 X80.364 Y101.832 E.01314
G1 X80.364 Y98.8 E.09508
G1 X79.945 Y97.934 E.03015
G1 X79.945 Y101.832 E.12222
G1 X79.526 Y101.832 E.01314
G1 X79.526 Y97.166 E.14632
G1 X79.107 Y96.478 E.02525
G1 X79.107 Y101.832 E.16788
G1 X78.688 Y101.832 E.01314
M73 P2 R27
G1 X78.688 Y95.862 E.18719
G1 X78.269 Y95.303 E.02192
G1 X78.269 Y101.832 E.20473
G1 X77.85 Y101.832 E.01314
G1 X77.85 Y94.794 E.22069
G1 X77.431 Y94.328 E.01964
G1 X77.431 Y101.832 E.23529
G1 X77.012 Y101.832 E.01314
G1 X77.012 Y94.317 E.23563
G1 X76.593 Y94.317 E.01314
G1 X76.593 Y101.832 E.23563
G1 X76.174 Y101.832 E.01314
G1 X76.174 Y94.147 E.24096
M204 P1000
G1 E-2.24 F4200
;WIPE_START
G1 F7200
G1 X76.174 Y95.793 E-.912
;WIPE_END
G1 E-.048 F4200
G1 Z.4 F720
G1 X104.479 Y102.172 F9000
G1 Z.2 F720
G1 E3.2 F2400
M204 P800
G1 F1200
G1 X98.029 Y102.172 E.20224
G1 X98.43 Y100.924 E.04109
G1 X98.973 Y99.481 E.04835
G1 X99.276 Y98.776 E.02407
G1 X99.601 Y98.084 E.02395
G1 X99.95 Y97.409 E.02383
G1 X100.521 Y96.43 E.03554
G1 X101.153 Y95.497 E.03533
G1 X101.852 Y94.616 E.03525
G1 X102.433 Y93.978 E.02708
G1 X104.479 Y93.978 E.06414
G1 X104.479 Y102.115 E.25514
M204 P1000
G1 X103.826 Y102.002 F9000
M204 P800
G1 F1200
G1 X103.826 Y94.317 E.24096
G1 X103.407 Y94.317 E.01314
G1 X103.407 Y101.832 E.23563
G1 X102.988 Y101.832 E.01314
G1 X102.988 Y94.317 E.23563
G1 X102.569 Y94.327 E.01314
G1 X102.569 Y101.832 E.23534
G1 X102.15 Y101.832 E.01314
G1 X102.15 Y94.791 E.22079
G1 X101.731 Y95.299 E.02066
G1 X101.731 Y101.832 E.20485
G1 X101.312 Y101.832 E.01314
G1 X101.312 Y95.859 E.1873
G1 X100.893 Y96.479 E.02346
G1 X100.893 Y101.832 E.16787
G1 X100.474 Y101.832 E.01314
G1 X100.474 Y97.173 E.14608
G1 X100.055 Y97.944 E.0275
G1 X100.055 Y101.832 E.12192
G1 X99.636 Y101.832 E.01314
G1 X99.636 Y98.806 E.09489
G1 X99.217 Y99.786 E.03343
G1 X99.217 Y101.832 E.06415
G1 X98.799 Y101.832 E.01314
G1 X98.799 Y100.401 E.04489
M204 P1000
G1 E-2.24 F4200
;WIPE_START
G1 F7200
G1 X98.799 Y101.832 E-.7934
G1 X99.013 Y101.832 E-.1186
;WIPE_END
G1 E-.048 F4200
G1 Z.4 F720
G1 X127.55 Y69.873 F9000
G1 Z.2 F720
G1 E3.2 F2400
M204 P800
G1 F1200
G1 X123.75 Y69.873 E.11912
G1 X123.75 Y67.735 E.06702
G1 X123.733 Y67.348 E.01215
G1 X123.687 Y66.978 E.01169
G1 X123.608 Y66.593 E.01231
G1 X123.496 Y66.217 E.01231
G1 X123.354 Y65.851 E.01231
G1 X123.183 Y65.498 E.01231
G1 X122.982 Y65.16 E.01231
G1 X122.755 Y64.84 E.01231
G1 X122.488 Y64.525 E.01293
G1 X122.225 Y64.262 E.01169
G1 X121.926 Y64.007 E.01231
G1 X121.59 Y63.768 E.01293
G1 X121.252 Y63.567 E.01231
G1 X120.917 Y63.404 E.01169
G1 X120.533 Y63.254 E.01293
G1 X120.176 Y63.147 E.01169
G1 X119.792 Y63.066 E.01231
G1 X119.155 Y63.006 E.02007
G1 X119.462 Y61.679 E.0427
G1 X127.55 Y61.679 E.2536
G1 X127.55 Y69.816 E.25514
M204 P1000
G1 X126.87 Y69.703 F9000
M204 P800
G1 F1200
G1 X126.87 Y62.018 E.24096
G1 X126.451 Y62.018 E.01314
G1 X126.451 Y69.533 E.23563
G1 X126.032 Y69.533 E.01314
G1 X126.032 Y62.018 E.23563
G1 X125.613 Y62.018 E.01314
G1 X125.613 Y69.533 E.23563
G1 X125.194 Y69.533 E.01314
G1 X125.194 Y62.018 E.23563
G1 X124.775 Y62.018 E.01314
G1 X124.775 Y69.533 E.23563
G1 X124.356 Y69.533 E.01314
G1 X124.356 Y62.018 E.23563
G1 X123.937 Y62.018 E.01314
M73 P3 R27
G1 X123.937 Y66.513 E.14092
G1 X123.809 Y66.081 E.01411
G1 X123.668 Y65.721 E.01213
G1 X123.518 Y65.411 E.01078
G1 X123.518 Y62.018 E.1064
G1 X123.099 Y62.018 E.01314
G1 X123.099 Y64.738 E.08529
G1 X122.68 Y64.237 E.02048
G1 X122.68 Y62.018 E.06958
G1 X122.261 Y62.018 E.01314
G1 X122.261 Y63.847 E.05734
G1 X121.842 Y63.53 E.01647
G1 X121.842 Y62.018 E.0474
G1 X121.423 Y62.018 E.01314
G1 X121.423 Y63.274 E.03938
G1 X121.004 Y63.072 E.01458
G1 X121.004 Y62.018 E.03306
G1 X120.585 Y62.018 E.01314
G1 X120.585 Y62.915 E.02813
G1 X120.166 Y62.798 E.01364
G1 X120.166 Y62.018 E.02445
G1 X119.747 Y62.018 E.01314
G1 X119.747 Y62.889 E.0273
M204 P1000
G1 E-2.24 F4200
;WIPE_START
G1 F7200
G1 X119.747 Y62.018 E-.48244
G1 X120.166 Y62.018 E-.23218
G1 X120.166 Y62.374 E-.19737
;WIPE_END
G1 E-.048 F4200
G1 Z.4 F720
G1 X84.772 Y109.036 F9000
G1 Z.2 F720
G1 E3.2 F2400
M204 P800
;TYPE:Perimeter
;WIDTH:0.419999
G1 F1200
G1 X84.537 Y107.565 E.0467
G1 X84.28 Y106.225 E.0428
G1 X83.84 Y104.231 E.064
G1 X83.429 Y102.653 E.05115
G1 X83.122 Y101.596 E.03452
G1 X82.891 Y100.894 E.02316
G1 X82.277 Y99.19 E.0568
G1 X81.888 Y98.269 E.03134
G1 X81.466 Y97.379 E.03087
G1 X80.986 Y96.48 E.03197
G1 X80.652 Y95.927 E.02024
G1 X79.893 Y94.786 E.04297
G1 X78.959 Y93.62 E.04685
G1 X78.288 Y92.894 E.03099
G1 X58.556 Y73.161 E.87499
G1 X58.183 Y72.725 E.01796
G1 X57.898 Y72.259 E.01713
G1 X57.689 Y71.755 E.01713
G1 X57.561 Y71.224 E.01713
G1 X57.517 Y70.652 E.01796
G1 X57.517 Y67.778 E.09013
G1 X57.566 Y67.177 E.01891
G1 X57.705 Y66.627 E.01777
G1 X57.874 Y66.27 E.01238
G1 X58.148 Y65.765 E.01803
G1 X58.551 Y65.28 E.01976
G1 X59.101 Y64.833 E.02224
G1 X59.602 Y64.562 E.01784
G1 X60.145 Y64.375 E.01803
G1 X60.508 Y64.315 E.01153
G1 X61.016 Y64.267 E.01601
G1 X119.155 Y64.275 E1.82291
G1 X119.86 Y64.377 E.02234
G1 X120.398 Y64.562 E.01784
G1 X120.904 Y64.836 E.01803
G1 X121.358 Y65.189 E.01803
G1 X121.747 Y65.612 E.01803
G1 X122.062 Y66.093 E.01803
G1 X122.293 Y66.62 E.01803
G1 X122.434 Y67.177 E.01802
G1 X122.483 Y67.928 E.02362
G1 X122.483 Y70.652 E.08541
G1 X122.439 Y71.224 E.01796
G1 X122.311 Y71.755 E.01713
G1 X122.102 Y72.259 E.01713
G1 X121.817 Y72.725 E.01713
G1 X121.444 Y73.161 E.01796
G1 X101.694 Y92.912 E.87578
G1 X100.876 Y93.808 E.03806
G1 X100.144 Y94.731 E.03692
G1 X99.416 Y95.815 E.04093
G1 X99.155 Y96.245 E.01577
G1 X98.831 Y96.815 E.02056
G1 X98.46 Y97.533 E.02535
G1 X98.114 Y98.269 E.0255
G1 X97.502 Y99.76 E.05052
G1 X97.228 Y100.523 E.02543
G1 X96.677 Y102.275 E.05759
G1 X96.122 Y104.39 E.06857
G1 X95.587 Y106.913 E.08087
G1 X95.377 Y108.053 E.03632
G1 X95.226 Y109.029 E.03099
G1 X95.049 Y108.531 E.01659
G1 X94.667 Y107.811 E.02554
G1 X94.237 Y107.219 E.02293
G1 X93.608 Y106.579 E.02815
G1 X93.025 Y106.138 E.02293
G1 X92.236 Y105.708 E.02815
G1 X91.469 Y105.434 E.02554
G1 X90.753 Y105.286 E.02293
G1 X89.643 Y105.249 E.03481
G1 X89.046 Y105.318 E.01885
G1 X88.256 Y105.518 E.02555
G1 X87.493 Y105.839 E.02597
G1 X86.637 Y106.382 E.03177
G1 X86.177 Y106.775 E.01896
G1 X85.635 Y107.378 E.02544
G1 X85.186 Y108.058 E.02555
G1 X84.872 Y108.719 E.02293
G1 X84.79 Y108.979 E.00855
M204 P1000
G1 X84.549 Y110.367 F9000
M204 P800
;TYPE:External perimeter
;WIDTH:0.425712
G1 F1200
G1 X84.475 Y109.565 E.02564
;WIDTH:0.419999
G1 X84.167 Y107.636 E.06124
G1 X83.912 Y106.306 E.04247
G1 X83.475 Y104.325 E.06361
G1 X83.066 Y102.758 E.05077
G1 X82.764 Y101.714 E.03408
G1 X82.533 Y101.012 E.02316
G1 X81.93 Y99.336 E.05583
G1 X81.547 Y98.431 E.03084
G1 X81.126 Y97.542 E.03082
G1 X80.663 Y96.675 E.03083
G1 X80.329 Y96.122 E.02024
G1 X79.599 Y95.022 E.04143
G1 X78.682 Y93.875 E.04601
G1 X78.022 Y93.16 E.03052
G1 X58.279 Y73.417 E.87545
G1 X57.877 Y72.948 E.01936
G1 X57.561 Y72.431 E.01899
G1 X57.329 Y71.872 E.01899
G1 X57.188 Y71.283 E.01899
G1 X57.14 Y70.667 E.01936
G1 X57.14 Y67.762 E.09108
G1 X57.193 Y67.115 E.02038
G1 X57.349 Y66.499 E.0199
G1 X57.603 Y65.961 E.01868
G1 X57.954 Y65.38 E.02127
G1 X58.29 Y65.006 E.01577
G1 X58.891 Y64.518 E.02426
G1 X59.45 Y64.215 E.01992
G1 X60.053 Y64.008 E.01999
G1 X60.446 Y63.943 E.01251
G1 X61.008 Y63.89 E.01772
G1 X119.183 Y63.898 E1.824
G1 X119.949 Y64.009 E.0243
M73 P4 R27
G1 X120.55 Y64.215 E.01992
G1 X121.111 Y64.519 E.01999
G1 X121.614 Y64.91 E.01999
G1 X122.046 Y65.379 E.01999
G1 X122.394 Y65.913 E.01999
G1 X122.65 Y66.497 E.01999
G1 X122.807 Y67.115 E.01999
G1 X122.86 Y67.928 E.02557
G1 X122.86 Y70.667 E.08587
G1 X122.812 Y71.283 E.01936
G1 X122.671 Y71.872 E.01899
G1 X122.439 Y72.431 E.01899
G1 X122.123 Y72.948 E.01899
G1 X121.721 Y73.417 E.01936
G1 X101.972 Y93.166 E.87572
G1 X101.173 Y94.04 E.03712
G1 X100.44 Y94.965 E.03703
G1 X99.98 Y95.627 E.02525
G1 X99.482 Y96.431 E.02966
G1 X99.166 Y96.988 E.02008
G1 X98.801 Y97.693 E.02491
G1 X98.462 Y98.415 E.025
G1 X97.857 Y99.887 E.04991
G1 X97.587 Y100.637 E.025
G1 X97.039 Y102.378 E.05721
G1 X96.49 Y104.47 E.06781
G1 X95.958 Y106.982 E.08051
G1 X95.75 Y108.11 E.03599
G1 X95.521 Y109.588 E.04688
;WIDTH:0.424638
G1 X95.451 Y110.337 E.02386
G1 X95.396 Y111.391 E.03353
;WIDTH:0.418235
G1 X95.242 Y112.179 E.02504
;WIDTH:0.418014
G1 X94.974 Y112.935 E.02502
;WIDTH:0.4178
G1 X94.598 Y113.644 E.02501
;WIDTH:0.417589
G1 X94.121 Y114.289 E.02499
;WIDTH:0.417385
G1 X93.555 Y114.857 E.02497
;WIDTH:0.417184
G1 X92.911 Y115.335 E.02496
;WIDTH:0.416988
G1 X92.204 Y115.714 E.02495
;WIDTH:0.416795
G1 X91.449 Y115.984 E.02493
;WIDTH:0.416609
G1 X90.663 Y116.14 E.02492
;WIDTH:0.416428
G1 X89.867 Y116.179 E.02473
;WIDTH:0.423089
G1 X89.193 Y116.124 E.02139
;WIDTH:0.42545
G1 X88.417 Y115.947 E.02531
G1 X87.925 Y115.754 E.01681
;WIDTH:0.424834
G1 X87.465 Y115.554 E.01593
;WIDTH:0.425582
G1 X86.986 Y115.27 E.01772
G1 X86.356 Y114.779 E.02542
;WIDTH:0.425406
G1 X85.978 Y114.394 E.01717
;WIDTH:0.414435
G1 X85.634 Y113.971 E.01682
;WIDTH:0.431088
G1 X85.349 Y113.553 E.01635
G1 X84.987 Y112.845 E.02566
;WIDTH:0.425122
G1 X84.803 Y112.316 E.0178
;WIDTH:0.41429
G1 X84.668 Y111.75 E.01797
;WIDTH:0.41639
G1 X84.582 Y111.133 E.01933
;WIDTH:0.425712
G1 X84.552 Y110.427 E.0225
M204 P1000
G1 E-2.24 F4200
;WIPE_START
G1 F7200
G1 X84.475 Y109.565 E-.47964
G1 X84.352 Y108.794 E-.43236
;WIPE_END
G1 E-.048 F4200
G1 Z.4 F720
G1 X91.728 Y105.925 F9000
G1 Z.2 F720
G1 E3.2 F2400
M204 P800
;WIDTH:0.419999
G1 F1200
G1 X92.106 Y106.062 E.01262
G1 X92.774 Y106.424 E.0238
G1 X93.381 Y106.88 E.0238
G1 X93.785 Y107.289 E.01803
G1 X94.362 Y108.033 E.02952
G1 X94.715 Y108.705 E.0238
G1 X94.962 Y109.424 E.02383
;WIDTH:0.43194
G1 X95.076 Y110.181 E.02479
G1 X95.031 Y111.292 E.03596
;WIDTH:0.420437
G1 X94.895 Y112.031 E.02359
;WIDTH:0.420651
G1 X94.658 Y112.724 E.02301
;WIDTH:0.420862
G1 X94.32 Y113.383 E.02327
;WIDTH:0.421069
G1 X93.889 Y113.985 E.02328
;WIDTH:0.421271
G1 X93.375 Y114.518 E.02329
;WIDTH:0.421468
G1 X92.788 Y114.97 E.0233
;WIDTH:0.421662
G1 X92.142 Y115.331 E.02331
;WIDTH:0.421857
G1 X91.451 Y115.594 E.02332
;WIDTH:0.422041
G1 X90.728 Y115.754 E.02333
;WIDTH:0.422227
G1 X89.99 Y115.806 E.02334
G1 X89.38 Y115.767 E.01927
;WIDTH:0.417158
G1 X88.808 Y115.664 E.01806
;WIDTH:0.41322
G1 X88.1 Y115.433 E.02294
;WIDTH:0.424834
G1 X87.647 Y115.219 E.01592
;WIDTH:0.425582
G1 X87.213 Y114.962 E.01605
G1 X86.795 Y114.661 E.01637
;WIDTH:0.414155
G1 X86.273 Y114.166 E.02222
;WIDTH:0.414435
G1 X85.93 Y113.747 E.01673
G1 X85.441 Y112.936 E.02925
;WIDTH:0.413939
G1 X85.167 Y112.236 E.02318
;WIDTH:0.414214
G1 X85.038 Y111.71 E.01672
;WIDTH:0.417082
G1 X84.957 Y111.135 E.01806
;WIDTH:0.420703
G1 X84.927 Y110.397 E.02322
G1 X84.99 Y109.647 E.02363
;WIDTH:0.419999
G1 X85.203 Y108.909 E.0241
G1 X85.527 Y108.22 E.02386
G1 X85.948 Y107.589 E.0238
G1 X86.456 Y107.029 E.0237
G1 X86.879 Y106.671 E.01739
G1 X87.693 Y106.158 E.03015
G1 X88.399 Y105.867 E.02394
G1 X89.136 Y105.684 E.02381
